X: 1
T: Bold Doherty
S: Session recording, Durty Nelly's, Sydney NSW
M: 6/8
L: 1/8
R: jig
K: Emin
EFG ~A3|B2E GAB|c2B BAG|AGE E2B|
EFG~A3|G2E GAB|cBA BAG|AGE E2B|
EFG ~A3|~B3 BAB|~c3 BAG|AGD E2B|
EFG~A3|G2E GAB|cBA BAG|AGE E2A||
B2e ede|dBA AGD|B2e ede|dBA AGD|
B2e ede|dBA AGA|cBA BAG|AGE E2A|
B2e ede|dBA AGD|B2e ede|dBA AGd|
~g3 gfe|dBA GAB|cBA BAG|AGD E2B||
